X:219
T:The Black Rogue
S:Becky Tracy
Z:robin.beech@mcgill.ca
R:jig
M:6/8
L:1/8
K:Amix
cAA BGB | cAA A2d | cAA GBd | AFD D2d |
cAA BGB | cBc AGF | G3 B3 |1 AFD D2d :|2 AFD D2e |:
f3 g3 | afd cBA| f3 gfg | afd dfg |
agf gfe | fed efd | cBA BAG | AFD D3 :||
